X: 28
T:Mr. Gordon of Hallhead
M:4/4
L:1/8
C:Wm Marshall
S:Arr. Barra MacNeils
R:Strathspey
D:"The Traditional Album"
K:G
|:G&amp;gt;D B,&amp;gt;D G/2F/2E/2D/2 B,&amp;gt;D|G2 BG A2 (3ABA|G&amp;gt;DB,D G/2F/2E/2F/2 Gg|dB c
/2B/2A
/2G/2 DG G2:||!
d|:g/2f/2g/2a/2 g2 g/2f/2g/2a/2 g2|e/2f/2g/2a/2 b/2a/2g/2f/2 ea ag/2f/2|
g&amp;lt;b e&amp;lt;g d&amp;lt;g B&amp;lt;G|!
|1cA c/2B/2A/2G/2 DG G2:|2cd c/2B/2A/2G/2 DG G2||
